build/Karasa-Jaga/scalable/actions/bookmark-add-symbolic.svg

<svg height="16" width="16" xmlns="http://www.w3.org/2000/svg"><g fill="#bebebe"><path d="m3.7627118.89406791v10.64406809l1.8305085-1.830509 1.8305085 1.830509v-10.64406809z"/><path d="m10.728814 9.6440678v2.0000002h-2.0000004v2h2.0000004v2h2v-2h2v-2h-2v-2.0000002z"/><path d="m2.21875.59375v14.8125h7.4375v-.625l-6.84375-.03125.03125-13.46875 7.09375-.03125 3.09375 2.6875.0625 4.71875a1.0720657 1.0720657 0 0 1 .6875.90625v-5.75l-3.40625-3.21875z" fill-opacity=".902043"/><path d="m10.399923 1.0711876.121037 2.8764119 2.795.039625v-.4386957l-2.554758-2.4773408z"/></g></svg>

<?xml version="1.0" encoding="UTF-8" standalone="no"?>
<!-- Created with Inkscape (http://www.inkscape.org/) -->

<svg
   xmlns:dc="http://purl.org/dc/elements/1.1/"
   xmlns:cc="http://creativecommons.org/ns#"
   xmlns:rdf="http://www.w3.org/1999/02/22-rdf-syntax-ns#"
   xmlns:svg="http://www.w3.org/2000/svg"
   xmlns="http://www.w3.org/2000/svg"
   xmlns:xlink="http://www.w3.org/1999/xlink"
   xmlns:sodipodi="http://sodipodi.sourceforge.net/DTD/sodipodi-0.dtd"
   xmlns:inkscape="http://www.inkscape.org/namespaces/inkscape"
   id="svg7384"
   height="16"
   width="16"
   version="1.1"
   inkscape:version="0.48.3.1 r9886"
   sodipodi:docname="bookmark-new-symbolic.svg">
  <defs
     id="defs10">
    <linearGradient
       id="linearGradient4565">
      <stop
         style="stop-color:#161616;stop-opacity:1;"
         offset="0"
         id="stop4567" />
      <stop
         style="stop-color:#3a3a3a;stop-opacity:1;"
         offset="1"
         id="stop4569" />
    </linearGradient>
    <linearGradient
       id="linearGradient3569">
      <stop
         style="stop-color:#161616;stop-opacity:1;"
         offset="0"
         id="stop3571" />
      <stop
         style="stop-color:#3a3a3a;stop-opacity:1;"
         offset="1"
         id="stop3573" />
    </linearGradient>
    <linearGradient
       y2="-40.636906"
       x2="54.675591"
       y1="40.918156"
       x1="136.23065"
       gradientUnits="userSpaceOnUse"
       id="linearGradient4548"
       xlink:href="#linearGradient3569"
       inkscape:collect="always" />
  </defs>
  <sodipodi:namedview
     pagecolor="#ffffff"
     bordercolor="#666666"
     borderopacity="1"
     objecttolerance="10"
     gridtolerance="10"
     guidetolerance="10"
     inkscape:pageopacity="0"
     inkscape:pageshadow="2"
     inkscape:window-width="1366"
     inkscape:window-height="696"
     id="namedview8"
     showgrid="false"
     inkscape:zoom="14.75"
     inkscape:cx="-2.5762712"
     inkscape:cy="8"
     inkscape:window-x="0"
     inkscape:window-y="0"
     inkscape:window-maximized="1"
     inkscape:current-layer="svg7384" />
  <metadata
     id="metadata90">
    <rdf:RDF>
      <cc:Work
         rdf:about="">
        <dc:format>image/svg+xml</dc:format>
        <dc:type
           rdf:resource="http://purl.org/dc/dcmitype/StillImage" />
        <dc:title>Gnome Symbolic Icon Theme</dc:title>
      </cc:Work>
    </rdf:RDF>
  </metadata>
  <title
     id="title9167">Gnome Symbolic Icon Theme</title>
  <path
     inkscape:connector-curvature="0"
     d="m 3.7627118,0.89406791 0,10.64406809 1.8305085,-1.830509 1.8305085,1.830509 0,-10.64406809 z"
     style="fill:#bebebe"
     id="path12292"
     sodipodi:nodetypes="cccccc" />
  <path
     inkscape:connector-curvature="0"
     d="M 10.728814,9.6440678 V 11.644068 H 8.7288136 v 2 h 2.0000004 v 2 h 2 v -2 h 2 v -2 h -2 V 9.6440678 h -2 z"
     style="fill:#bebebe"
     id="rect12294" />
  <path
     style="fill:#bebebe;fill-opacity:0.9020427;stroke:none"
     d="M 2.21875 0.59375 L 2.21875 15.40625 L 9.65625 15.40625 L 9.65625 14.78125 L 2.8125 14.75 L 2.84375 1.28125 L 9.9375 1.25 L 13.03125 3.9375 L 13.09375 8.65625 A 1.0720657 1.0720657 0 0 1 13.78125 9.5625 L 13.78125 3.8125 L 10.375 0.59375 L 2.21875 0.59375 z "
     id="rect7217" />
  <path
     style="fill:#bebebe;fill-opacity:1;stroke:none"
     d="m 10.399923,1.0711876 0.121037,2.8764119 2.795,0.039625 0,-0.4386957 -2.554758,-2.4773408 z"
     id="path7212"
     inkscape:connector-curvature="0"
     sodipodi:nodetypes="cccccc" />
</svg>
